optimized/24/solid/device-phone-mobile.svg

<svg xmlns="http://www.w3.org/2000/svg" viewBox="0 0 24 24">
  <path d="M10.5 18.75C10.0858 18.75 9.75 19.0858 9.75 19.5C9.75 19.9142 10.0858 20.25 10.5 20.25H13.5C13.9142 20.25 14.25 19.9142 14.25 19.5C14.25 19.0858 13.9142 18.75 13.5 18.75H10.5Z"/>
  <path fill-rule="evenodd" d="M8.625 0.75C6.76104 0.75 5.25 2.26104 5.25 4.125V19.875C5.25 21.739 6.76104 23.25 8.625 23.25H15.375C17.239 23.25 18.75 21.739 18.75 19.875V4.125C18.75 2.26104 17.239 0.75 15.375 0.75H8.625ZM7.5 4.125C7.5 3.50368 8.00368 3 8.625 3H9.75V3.375C9.75 3.99632 10.2537 4.5 10.875 4.5H13.125C13.7463 4.5 14.25 3.99632 14.25 3.375V3H15.375C15.9963 3 16.5 3.50368 16.5 4.125V19.875C16.5 20.4963 15.9963 21 15.375 21H8.625C8.00368 21 7.5 20.4963 7.5 19.875V4.125Z" clip-rule="evenodd"/>
</svg>

<svg xmlns="http://www.w3.org/2000/svg" viewBox="0 0 24 24" fill="currentColor" aria-hidden="true">
  <path d="M10.5 18.75a.75.75 0 000 1.5h3a.75.75 0 000-1.5h-3z"/>
  <path fill-rule="evenodd" d="M8.625.75A3.375 3.375 0 005.25 4.125v15.75a3.375 3.375 0 003.375 3.375h6.75a3.375 3.375 0 003.375-3.375V4.125A3.375 3.375 0 0015.375.75h-6.75zM7.5 4.125C7.5 3.504 8.004 3 8.625 3H9.75v.375c0 .621.504 1.125 1.125 1.125h2.25c.621 0 1.125-.504 1.125-1.125V3h1.125c.621 0 1.125.504 1.125 1.125v15.75c0 .621-.504 1.125-1.125 1.125h-6.75A1.125 1.125 0 017.5 19.875V4.125z" clip-rule="evenodd"/>
</svg>
